X:255
T:Red Cross Hornpipe
M:2/4
L:1/16
Z:abc by Bruce Osborne - bosborne@kos.net
K:D
A2|efed cABc|dAfA eAfA|efed cABc|d2f2 a2A2|!
efed cABc|dAfA eAfA|efed cABc|d2f2 d2:|!
|:A2|ABcd efge|fefg afed|cBcd cABc|d2df a2A2|!
ABcd efge|fefg afed|cBcd cABc|d2f2 d2:|!
